;FLAVOR:UltiGCode
;TIME:8829
;MATERIAL:27824
;MATERIAL2:0
;NOZZLE_DIAMETER:0.500000
;NOZZLE_DIAMETER2:0.500000

;Layer count: 59
;LAYER:0
M107
G0 F9000 X111.498 Y11.358 Z0.300
;TYPE:SKIRT
G1 F1200 X197.998 Y11.358 E12.97500
G1 X197.998 Y97.858 E25.95000
G1 X111.498 Y97.858 E38.92500
G1 X111.498 Y11.358 E51.90000
G0 F9000 X100.615 Y114.606
G1 F1200 X100.615 Y119.300 E52.60410
G1 X100.559 Y130.266 E54.24902
G1 X100.559 Y178.249 E61.44647
G1 X100.614 Y189.197 E63.08869
G1 X100.617 Y193.891 E63.79279
G1 X95.923 Y193.891 E64.49689
G1 X84.956 Y193.835 E66.14196
G1 X36.989 Y193.835 E73.33701
G1 X26.026 Y193.890 E74.98148
G1 X21.332 Y193.893 E75.68558
G1 X21.332 Y189.199 E76.38968
G1 X21.388 Y178.232 E78.03476
G1 X21.388 Y130.249 E85.23221
G1 X21.333 Y119.302 E86.87428
G1 X21.330 Y114.608 E87.57838
G1 X26.024 Y114.608 E88.28248
G1 X36.990 Y114.664 E89.92740
G1 X84.957 Y114.664 E97.12245
G1 X95.921 Y114.609 E98.76707
G1 X100.615 Y114.606 E99.47117
G10
G0 F9000 X115.498 Y93.858
;TYPE:WALL-INNER
G11
G1 F1200 X115.498 Y15.358 E111.24617
G1 X193.998 Y15.358 E123.02117
G1 X193.998 Y93.858 E134.79617
G1 X115.498 Y93.858 E146.57117
G0 F9000 X119.431 Y89.587
G1 F1200 X119.890 Y90.028 E146.66665
G1 X120.418 Y90.384 E146.76217
G1 X120.998 Y90.647 E146.85769
G1 X121.614 Y90.807 E146.95316
G1 X122.248 Y90.861 E147.04861
G1 X122.882 Y90.807 E147.14405
G1 X123.499 Y90.647 E147.23966
G1 X124.078 Y90.384 E147.33505
G1 X124.606 Y90.028 E147.43057
G1 X125.065 Y89.587 E147.52605
G1 X125.444 Y89.076 E147.62148
G1 X125.730 Y88.508 E147.71687
G1 X125.917 Y87.898 E147.81258
G1 X125.997 Y87.267 E147.90798
G1 X125.971 Y86.632 E148.00331
G1 X125.837 Y86.009 E148.09890
G1 X125.599 Y85.418 E148.19447
G1 X125.265 Y84.876 E148.28997
G1 X124.845 Y84.399 E148.38530
G1 X124.350 Y83.998 E148.48086
G1 X123.794 Y83.688 E148.57634
G1 X123.193 Y83.477 E148.67189
G1 X122.567 Y83.369 E148.76717
G1 X121.930 Y83.369 E148.86272
G1 X121.303 Y83.476 E148.95813
G1 X120.702 Y83.688 E149.05373
G1 X120.146 Y83.998 E149.14922
G1 X119.651 Y84.399 E149.24477
G1 X119.231 Y84.876 E149.34010
G1 X118.897 Y85.418 E149.43560
G1 X118.660 Y86.009 E149.53111
G1 X118.525 Y86.631 E149.62659
G1 X118.499 Y87.267 E149.72207
G1 X118.579 Y87.898 E149.81747
G1 X118.766 Y88.508 E149.91318
G1 X119.053 Y89.076 E150.00864
G1 X119.431 Y89.587 E150.10398
G0 F9000 X118.551 Y87.264
G0 X118.943 Y85.441
G0 X120.175 Y84.041
G0 X121.935 Y83.420
G0 X123.772 Y83.735
G0 X134.938 Y73.311
G1 F1200 X135.967 Y74.343 E150.32258
G1 X137.085 Y75.353 E150.54858
G1 X138.221 Y76.268 E150.76738
G1 X139.348 Y77.082 E150.97591
G1 X139.403 Y77.122 E150.98611
G1 X140.589 Y77.883 E151.19749
G1 X141.852 Y78.607 E151.41586
G1 X143.131 Y79.251 E151.63065
G1 X143.335 Y79.355 E151.66500
G1 X166.151 Y79.357 E155.08740
G1 X167.552 Y78.656 E155.32239
G1 X168.819 Y77.938 E155.54084
G1 X170.048 Y77.151 E155.75974
G1 X171.271 Y76.271 E155.98575
G1 X172.370 Y75.387 E156.19731
G1 X173.454 Y74.414 E156.41580
G1 X174.488 Y73.385 E156.63462
G1 X175.497 Y72.266 E156.86063
G1 X176.412 Y71.130 E157.07943
G1 X177.226 Y70.002 E157.28809
G1 X177.266 Y69.947 E157.29829
G1 X178.026 Y68.761 E157.50958
G1 X178.750 Y67.497 E157.72808
G1 X179.394 Y66.217 E157.94301
G1 X179.498 Y66.013 E157.97736
G1 X179.498 Y43.206 E161.39841
G1 X178.797 Y41.805 E161.63340
G1 X178.078 Y40.538 E161.85191
G1 X177.292 Y39.309 E162.07074
G1 X176.412 Y38.085 E162.29687
G1 X175.527 Y36.987 E162.50841
G1 X174.556 Y35.902 E162.72681
G1 X173.526 Y34.868 E162.94573
G1 X172.407 Y33.860 E163.17164
G1 X171.271 Y32.945 E163.39044
G1 X170.143 Y32.130 E163.59919
G1 X170.088 Y32.090 E163.60939
G1 X168.902 Y31.330 E163.82068
G1 X167.638 Y30.606 E164.03918
G1 X166.358 Y29.962 E164.25411
G1 X166.154 Y29.858 E164.28846
G1 X144.600 Y29.858 E167.52156
G1 X143.155 Y30.507 E167.75917
G1 X141.828 Y31.191 E167.98310
G1 X140.540 Y31.950 E168.20735
G1 X139.299 Y32.779 E168.43122
G1 X138.103 Y33.675 E168.65538
G1 X136.960 Y34.637 E168.87947
G1 X135.873 Y35.662 E169.10358
G1 X134.845 Y36.745 E169.32756
G1 X133.879 Y37.885 E169.55169
G1 X132.977 Y39.075 E169.77568
G1 X132.115 Y40.357 E170.00741
G1 X131.355 Y41.643 E170.23147
G1 X130.691 Y42.926 E170.44817
G1 X130.084 Y44.269 E170.66924
G1 X129.998 Y44.462 E170.70093
G1 X129.998 Y66.009 E173.93298
G1 X130.699 Y67.410 E174.16797
G1 X131.418 Y68.678 E174.38662
G1 X132.204 Y69.905 E174.60520
G1 X133.083 Y71.128 E174.83111
G1 X133.967 Y72.226 E175.04256
G1 X134.938 Y73.311 E175.26096
G0 F9000 X139.432 Y77.080
G0 X143.350 Y79.299
G0 X183.660 Y86.009
G1 F1200 X183.525 Y86.631 E175.35644
G1 X183.499 Y87.267 E175.45192
G1 X183.579 Y87.898 E175.54732
G1 X183.766 Y88.508 E175.64303
G1 X184.053 Y89.076 E175.73849
G1 X184.431 Y89.587 E175.83383
G1 X184.890 Y90.028 E175.92931
G1 X185.418 Y90.384 E176.02483
G1 X185.998 Y90.647 E176.12035
G1 X186.614 Y90.807 E176.21582
G1 X187.248 Y90.861 E176.31126
G1 X187.882 Y90.807 E176.40671
G1 X188.499 Y90.647 E176.50232
G1 X189.078 Y90.384 E176.59771
G1 X189.606 Y90.028 E176.69323
G1 X190.065 Y89.587 E176.78871
G1 X190.444 Y89.076 E176.88414
G1 X190.730 Y88.508 E176.97953
G1 X190.917 Y87.898 E177.07523
G1 X190.997 Y87.267 E177.17064
G1 X190.971 Y86.632 E177.26597
G1 X190.837 Y86.009 E177.36156
G1 X190.599 Y85.418 E177.45713
G1 X190.265 Y84.876 E177.55262
G1 X189.845 Y84.399 E177.64796
G1 X189.350 Y83.998 E177.74351
G1 X188.794 Y83.688 E177.83900
G1 X188.193 Y83.477 E177.93455
G1 X187.567 Y83.369 E178.02983
G1 X186.930 Y83.369 E178.12538
G1 X186.303 Y83.476 E178.22079
G1 X185.702 Y83.688 E178.31639
G1 X185.146 Y83.998 E178.41187
G1 X184.651 Y84.399 E178.50743
G1 X184.231 Y84.876 E178.60276
G1 X183.897 Y85.418 E178.69826
G1 X183.660 Y86.009 E178.79377
G0 F9000 X187.248 Y25.861
G1 F1200 X187.882 Y25.807 E178.88922
G1 X188.499 Y25.647 E178.98483
G1 X189.078 Y25.384 E179.08022
G1 X189.606 Y25.028 E179.17574
G1 X190.065 Y24.587 E179.27122
G1 X190.444 Y24.076 E179.36665
G1 X190.730 Y23.508 E179.46204
G1 X190.917 Y22.898 E179.55774
G1 X190.997 Y22.267 E179.65315
G1 X190.971 Y21.632 E179.74848
G1 X190.837 Y21.009 E179.84407
G1 X190.599 Y20.418 E179.93964
G1 X190.265 Y19.876 E180.03513
G1 X189.845 Y19.399 E180.13047
G1 X189.350 Y18.998 E180.22602
G1 X188.794 Y18.688 E180.32151
G1 X188.193 Y18.477 E180.41705
G1 X187.567 Y18.369 E180.51234
G1 X186.930 Y18.369 E180.60789
G1 X186.303 Y18.476 E180.70330
G1 X185.702 Y18.688 E180.79890
G1 X185.146 Y18.998 E180.89438
G1 X184.651 Y19.399 E180.98994
G1 X184.231 Y19.876 E181.08527
G1 X183.897 Y20.418 E181.18077
G1 X183.660 Y21.009 E181.27628
G1 X183.525 Y21.631 E181.37175
G1 X183.499 Y22.267 E181.46723
G1 X183.579 Y22.898 E181.56264
G1 X183.766 Y23.508 E181.65834
G1 X184.053 Y24.076 E181.75380
G1 X184.431 Y24.587 E181.84915
G1 X184.890 Y25.028 E181.94462
G1 X185.418 Y25.384 E182.04014
G1 X185.998 Y25.647 E182.13567
G1 X186.614 Y25.807 E182.23114
G1 X187.248 Y25.861 E182.32658
G0 F9000 X125.997 Y22.267
G1 F1200 X125.971 Y21.632 E182.42191
G1 X125.837 Y21.009 E182.51750
G1 X125.599 Y20.418 E182.61307
G1 X125.265 Y19.876 E182.70856
G1 X124.845 Y19.399 E182.80390
G1 X124.350 Y18.998 E182.89945
G1 X123.794 Y18.688 E182.99494
G1 X123.193 Y18.477 E183.09049
G1 X122.567 Y18.369 E183.18577
G1 X121.930 Y18.369 E183.28132
G1 X121.303 Y18.476 E183.37673
G1 X120.702 Y18.688 E183.47233
G1 X120.146 Y18.998 E183.56781
G1 X119.651 Y19.399 E183.66337
G1 X119.231 Y19.876 E183.75870
G1 X118.897 Y20.418 E183.85420
G1 X118.660 Y21.009 E183.94971
G1 X118.525 Y21.631 E184.04519
G1 X118.499 Y22.267 E184.14067
G1 X118.579 Y22.898 E184.23607
G1 X118.766 Y23.508 E184.33178
G1 X119.053 Y24.076 E184.42723
G1 X119.431 Y24.587 E184.52258
G1 X119.890 Y25.028 E184.61805
G1 X120.418 Y25.384 E184.71358
G1 X120.998 Y25.647 E184.80910
G1 X121.614 Y25.807 E184.90457
G1 X122.248 Y25.861 E185.00001
G1 X122.882 Y25.807 E185.09546
G1 X123.499 Y25.647 E185.19107
G1 X124.078 Y25.384 E185.28646
G1 X124.606 Y25.028 E185.38198
G1 X125.065 Y24.587 E185.47746
G1 X125.444 Y24.076 E185.57289
G1 X125.730 Y23.508 E185.66828
G1 X125.917 Y22.898 E185.76398
G1 X125.997 Y22.267 E185.85939
G0 F9000 X125.496 Y22.246
;TYPE:WALL-OUTER
G1 F1200 X125.473 Y21.695 E185.94211
G1 X125.357 Y21.156 E186.02481
G1 X125.151 Y20.644 E186.10760
G1 X124.862 Y20.175 E186.19023
G1 X124.498 Y19.761 E186.27292
G1 X124.069 Y19.414 E186.35569
G1 X123.587 Y19.145 E186.43848
G1 X123.067 Y18.962 E186.52117
G1 X122.524 Y18.869 E186.60381
G1 X121.973 Y18.869 E186.68646
G1 X121.429 Y18.962 E186.76924
G1 X120.909 Y19.145 E186.85193
G1 X120.427 Y19.414 E186.93473
G1 X119.998 Y19.761 E187.01749
G1 X119.634 Y20.175 E187.10018
G1 X119.345 Y20.644 E187.18282
G1 X119.140 Y21.156 E187.26554
G1 X119.023 Y21.695 E187.34828
G1 X119.000 Y22.246 E187.43100
G1 X119.070 Y22.793 E187.51372
G1 X119.231 Y23.321 E187.59652
G1 X119.480 Y23.813 E187.67923
G1 X119.808 Y24.256 E187.76191
G1 X120.205 Y24.637 E187.84445
G1 X120.663 Y24.946 E187.92732
G1 X121.165 Y25.174 E188.01003
G1 X121.699 Y25.312 E188.09276
G1 X122.248 Y25.359 E188.17541
G1 X122.797 Y25.312 E188.25806
G1 X123.332 Y25.174 E188.34094
G1 X123.833 Y24.946 E188.42350
G1 X124.291 Y24.637 E188.50638
G1 X124.688 Y24.256 E188.58891
G1 X125.017 Y23.813 E188.67168
G1 X125.265 Y23.321 E188.75433
G1 X125.426 Y22.793 E188.83713
G1 X125.496 Y22.246 E188.91985
G0 F9000 X125.842 Y22.289
G0 X125.553 Y20.441
G0 X124.321 Y19.041
G0 X122.562 Y18.420
G0 X115.348 Y15.118
G0 X114.998 Y14.858
G1 F1200 X194.498 Y14.858 E200.84485
G1 X194.498 Y94.358 E212.76985
G1 X114.998 Y94.358 E224.69485
G1 X114.998 Y14.858 E236.61985
G0 F9000 X115.348 Y15.118
G0 X119.469 Y24.553
G0 X121.016 Y25.598
G0 X122.873 Y25.757
G0 X135.972 Y35.778
G0 X136.226 Y36.016
G1 F1200 X135.217 Y37.079 E236.83969
G1 X134.269 Y38.198 E237.05968
G1 X133.384 Y39.366 E237.27949
G1 X132.538 Y40.624 E237.50689
G1 X131.792 Y41.886 E237.72679
G1 X131.141 Y43.144 E237.93926
G1 X130.540 Y44.474 E238.15819
G1 X130.498 Y44.568 E238.17363
G1 X130.498 Y65.891 E241.37208
G1 X131.140 Y67.175 E241.58741
G1 X131.846 Y68.419 E241.80197
G1 X132.618 Y69.624 E242.01663
G1 X133.481 Y70.825 E242.23847
G1 X134.348 Y71.902 E242.44586
G1 X135.302 Y72.968 E242.66044
G1 X136.312 Y73.981 E242.87501
G1 X137.410 Y74.972 E243.09688
G1 X138.524 Y75.871 E243.31160
G1 X139.684 Y76.708 E243.52617
G1 X140.848 Y77.456 E243.73371
G1 X142.089 Y78.166 E243.94817
G1 X143.359 Y78.805 E244.16143
G1 X143.456 Y78.855 E244.17780
G1 X166.033 Y78.857 E247.56435
G1 X167.317 Y78.215 E247.77968
G1 X168.561 Y77.509 E247.99424
G1 X169.767 Y76.737 E248.20903
G1 X170.968 Y75.873 E248.43095
G1 X172.046 Y75.006 E248.63846
G1 X173.111 Y74.051 E248.85303
G1 X174.125 Y73.040 E249.06781
G1 X175.116 Y71.941 E249.28979
G1 X176.014 Y70.827 E249.50442
G1 X176.852 Y69.666 E249.71919
G1 X177.599 Y68.502 E249.92666
G1 X178.309 Y67.260 E250.14125
G1 X178.948 Y65.989 E250.35464
G1 X178.998 Y65.892 E250.37101
G1 X178.998 Y43.324 E253.75621
G1 X178.356 Y42.040 E253.97154
G1 X177.649 Y40.796 E254.18617
G1 X176.878 Y39.590 E254.40088
G1 X176.014 Y38.388 E254.62292
G1 X175.146 Y37.311 E254.83041
G1 X174.192 Y36.245 E255.04499
G1 X173.181 Y35.231 E255.25978
G1 X172.082 Y34.241 E255.48165
G1 X170.968 Y33.342 E255.69637
G1 X169.807 Y32.504 E255.91115
G1 X168.643 Y31.757 E256.11861
G1 X167.401 Y31.047 E256.33321
G1 X166.130 Y30.408 E256.54659
G1 X166.033 Y30.358 E256.56296
G1 X144.707 Y30.358 E259.76186
G1 X143.372 Y30.958 E259.98141
G1 X142.069 Y31.629 E260.20125
G1 X140.806 Y32.373 E260.42113
G1 X139.588 Y33.187 E260.64087
G1 X138.414 Y34.066 E260.86086
G1 X137.293 Y35.010 E261.08069
G1 X136.226 Y36.016 E261.30066
G0 F9000 X135.972 Y35.778
G0 X139.328 Y32.820
G0 X144.613 Y29.913
G0 X183.735 Y22.895
G0 X184.070 Y22.793
G1 F1200 X184.231 Y23.321 E261.38346
G1 X184.480 Y23.813 E261.46618
G1 X184.808 Y24.256 E261.54886
G1 X185.205 Y24.637 E261.63139
G1 X185.663 Y24.946 E261.71427
G1 X186.165 Y25.174 E261.79697
G1 X186.699 Y25.312 E261.87970
G1 X187.248 Y25.359 E261.96235
G1 X187.797 Y25.312 E262.04500
G1 X188.332 Y25.174 E262.12788
G1 X188.833 Y24.946 E262.21045
G1 X189.291 Y24.637 E262.29332
G1 X189.688 Y24.256 E262.37586
G1 X190.017 Y23.813 E262.45863
G1 X190.265 Y23.321 E262.54127
G1 X190.426 Y22.793 E262.62407
G1 X190.496 Y22.246 E262.70679
G1 X190.473 Y21.695 E262.78951
G1 X190.357 Y21.156 E262.87222
G1 X190.151 Y20.644 E262.95500
G1 X189.862 Y20.175 E263.03763
G1 X189.498 Y19.761 E263.12032
G1 X189.069 Y19.414 E263.20309
G1 X188.587 Y19.145 E263.28589
G1 X188.067 Y18.962 E263.36857
G1 X187.524 Y18.869 E263.45121
G1 X186.973 Y18.869 E263.53386
G1 X186.429 Y18.962 E263.61664
G1 X185.909 Y19.145 E263.69933
G1 X185.427 Y19.414 E263.78213
G1 X184.998 Y19.761 E263.86490
G1 X184.634 Y20.175 E263.94759
G1 X184.345 Y20.644 E264.03022
G1 X184.140 Y21.156 E264.11295
G1 X184.023 Y21.695 E264.19568
G1 X184.000 Y22.246 E264.27840
G1 X184.070 Y22.793 E264.36112
G0 F9000 X183.735 Y22.895
G0 X186.973 Y83.519
G0 X186.973 Y83.869
G1 F1200 X186.429 Y83.962 E264.44391
G1 X185.909 Y84.145 E264.52659
G1 X185.427 Y84.414 E264.60939
G1 X184.998 Y84.761 E264.69216
G1 X184.634 Y85.175 E264.77485
G1 X184.345 Y85.644 E264.85748
G1 X184.140 Y86.156 E264.94021
G1 X184.023 Y86.695 E265.02294
G1 X184.000 Y87.246 E265.10566
G1 X184.070 Y87.793 E265.18838
G1 X184.231 Y88.321 E265.27118
G1 X184.480 Y88.813 E265.35390
G1 X184.808 Y89.256 E265.43658
G1 X185.205 Y89.637 E265.51911
G1 X185.663 Y89.946 E265.60199
G1 X186.165 Y90.174 E265.68469
G1 X186.699 Y90.312 E265.76742
G1 X187.248 Y90.359 E265.85007
G1 X187.797 Y90.312 E265.93272
G1 X188.332 Y90.174 E266.01560
G1 X188.833 Y89.946 E266.09817
G1 X189.291 Y89.637 E266.18104
G1 X189.688 Y89.256 E266.26358
G1 X190.017 Y88.813 E266.34635
G1 X190.265 Y88.321 E266.42899
G1 X190.426 Y87.793 E266.51179
G1 X190.496 Y87.246 E266.59451
G1 X190.473 Y86.695 E266.67723
G1 X190.357 Y86.156 E266.75994
G1 X190.151 Y85.644 E266.84272
G1 X189.862 Y85.175 E266.92535
G1 X189.498 Y84.761 E267.00804
G1 X189.069 Y84.414 E267.09081
G1 X188.587 Y84.145 E267.17360
G1 X188.067 Y83.962 E267.25629
G1 X187.524 Y83.869 E267.33893
G1 X186.973 Y83.869 E267.42158
G0 F9000 X186.973 Y83.519
G0 X125.823 Y86.680
G0 X125.473 Y86.695
G1 F1200 X125.357 Y86.156 E267.50428
G1 X125.151 Y85.644 E267.58706
G1 X124.862 Y85.175 E267.66970
G1 X124.498 Y84.761 E267.75239
G1 X124.069 Y84.414 E267.83515
G1 X123.587 Y84.145 E267.91795
G1 X123.067 Y83.962 E268.00064
G1 X122.524 Y83.869 E268.08328
G1 X121.973 Y83.869 E268.16593
G1 X121.429 Y83.962 E268.24871
G1 X120.909 Y84.145 E268.33140
G1 X120.427 Y84.414 E268.41420
G1 X119.998 Y84.761 E268.49696
G1 X119.634 Y85.175 E268.57965
G1 X119.345 Y85.644 E268.66229
G1 X119.140 Y86.156 E268.74501
G1 X119.023 Y86.695 E268.82775
G1 X119.000 Y87.246 E268.91047
G1 X119.070 Y87.793 E268.99319
G1 X119.231 Y88.321 E269.07599
G1 X119.480 Y88.813 E269.15870
G1 X119.808 Y89.256 E269.24138
G1 X120.205 Y89.637 E269.32392
G1 X120.663 Y89.946 E269.40679
G1 X121.165 Y90.174 E269.48949
G1 X121.699 Y90.312 E269.57223
G1 X122.248 Y90.359 E269.65488
G1 X122.797 Y90.312 E269.73753
G1 X123.332 Y90.174 E269.82040
G1 X123.833 Y89.946 E269.90297
G1 X124.291 Y89.637 E269.98584
G1 X124.688 Y89.256 E270.06838
G1 X125.017 Y88.813 E270.15115
G1 X125.265 Y88.321 E270.23380
G1 X125.426 Y87.793 E270.31660
G1 X125.496 Y87.246 E270.39932
G1 X125.473 Y86.695 E270.48204
G0 F9000 X126.156 Y86.911
;TYPE:SKIN
G1 F1200 X132.927 Y93.683 E271.91849
G0 F9000 X132.220 Y93.683
G1 F1200 X126.131 Y87.594 E273.21016
G0 F9000 X126.011 Y88.181
G1 F1200 X131.513 Y93.683 E274.37731
G0 F9000 X130.806 Y93.683
G1 F1200 X125.826 Y88.703 E275.43373
G0 F9000 X125.588 Y89.172
G1 F1200 X130.099 Y93.683 E276.39066
G0 F9000 X129.392 Y93.683
G1 F1200 X125.287 Y89.578 E277.26146
G0 F9000 X124.945 Y89.943
G1 F1200 X128.684 Y93.683 E278.05473
G0 F9000 X127.977 Y93.683
G1 F1200 X124.562 Y90.267 E278.77927
G0 F9000 X124.137 Y90.549
G1 F1200 X127.270 Y93.683 E279.44398
G0 F9000 X126.563 Y93.683
G1 F1200 X123.651 Y90.771 E280.06171
G0 F9000 X123.104 Y90.931
G1 F1200 X125.856 Y93.683 E280.64550
G0 F9000 X125.149 Y93.683
G1 F1200 X122.482 Y91.016 E281.21125
G0 F9000 X121.753 Y90.994
